X: 1558
T: Ivy's Spoon Duet
B: australian traditional tunes wiki
M:C
L:1/8
R: Tangoette
Q: 1/4=100
K:D
V:1 
"D"d2cBd2cB|"D"dd3z DFA |d2cBA2BA|"A7"c4z2A2|
c2BAc2BA|cc4zB2|AA2 A BcBA|"D"F4 zA Bc||
"D" d2cBd2cB|dd4-dz2|zddd fedB-|"G"B3z "A7"A3^A|
B^ABc "D"d3e|"D"f2dB"A"A3B|"A7"BAB=c^c2f2|"D"d8||
% abcbook-tune_id 6342d53a78806ceaaa5a5b24


% abcbook-boost 0
% abcbook-tablature 
% abcbook-transpose 
% abcbook-lastupdated 1665324371003
% abcbook-soundfonts 
% abcbook-repeats 1
% NFF Book 2007

